images/app-mob.svg

<svg viewBox="0 0 104 104" fill="none" xmlns="http://www.w3.org/2000/svg">
<path d="M64.5344 1.625H15.419C12.7229 1.625 10.5172 3.83094 10.5172 6.52722V97.6759C10.5172 100.372 12.7232 102.578 15.4192 102.578H64.5344C67.2307 102.578 69.4365 100.372 69.4365 97.6759V76.0419V38.7654V6.52722C69.4365 3.83094 67.2307 1.625 64.5344 1.625Z" fill="#E4EAF8"/>
<path d="M14.5799 97.6759V6.52722C14.5799 3.83094 16.7859 1.625 19.4817 1.625H15.419C12.7229 1.625 10.5172 3.83094 10.5172 6.52722V97.6759C10.5172 100.372 12.7232 102.578 15.4192 102.578H19.4819C16.7859 102.578 14.5799 100.372 14.5799 97.6759Z" fill="#D8DCE5"/>
<path d="M61.6099 16.9014H18.3436C17.6546 16.9014 17.0958 17.46 17.0958 18.1492V84.5398C17.0958 85.2288 17.6546 85.7876 18.3436 85.7876H61.6099C62.2991 85.7876 62.8577 85.229 62.8577 84.5398V76.042V38.7655V18.1492C62.8577 17.46 62.2991 16.9014 61.6099 16.9014Z" fill="#5BDDFC"/>
<path d="M21.1585 84.5398V18.1492C21.1585 17.4602 21.7173 16.9014 22.4063 16.9014H18.3436C17.6546 16.9014 17.0958 17.46 17.0958 18.1492V84.5398C17.0958 85.2288 17.6546 85.7876 18.3436 85.7876H22.4063C21.7173 85.7878 21.1585 85.229 21.1585 84.5398Z" fill="#00C3FF"/>
<path d="M61.6099 16.9014H18.3436C17.6546 16.9014 17.0958 17.4602 17.0958 18.1492V26.5624H62.8581V18.1492C62.8577 17.4602 62.2991 16.9014 61.6099 16.9014Z" fill="#00C3FF"/>
<path d="M26.0085 16.9014H18.3436C17.6546 16.9014 17.0958 17.4602 17.0958 18.1492V26.5624H26.0089V16.9014H26.0085Z" fill="#FF5050"/>
<path d="M21.1585 18.3037C21.1585 17.6706 21.5471 17.1285 22.0984 16.9014H18.3436C17.6546 16.9014 17.0958 17.46 17.0958 18.1492V26.5624H21.1585V18.3037Z" fill="#ED3A3A"/>
<path d="M44.2285 97.0698H35.7248C34.4587 97.0698 33.4226 96.0339 33.4226 94.7676V93.6094C33.4226 92.3433 34.4585 91.3071 35.7248 91.3071H44.2285C45.4945 91.3071 46.5307 92.3431 46.5307 93.6094V94.7676C46.5307 96.0339 45.4947 97.0698 44.2285 97.0698Z" fill="#C3C8D1"/>
<path d="M44.2284 94.1881H35.7248C34.763 94.1881 33.9353 93.5899 33.5922 92.7476C33.4835 93.0143 33.4224 93.3047 33.4224 93.609V94.767C33.4224 96.0331 34.4583 97.0692 35.7246 97.0692H44.2282C45.4943 97.0692 46.5304 96.0333 46.5304 94.767V93.609C46.5304 93.3045 46.4693 93.0141 46.3606 92.7476C46.0179 93.5899 45.1902 94.1881 44.2284 94.1881Z" fill="#B0B3B7"/>
<path d="M92.7475 52.7224H86.9716C86.6046 51.1537 85.9877 49.6814 85.1616 48.3516L89.2452 44.2678C89.4934 44.0195 89.4934 43.6171 89.2452 43.3691L85.4055 39.5293C85.1573 39.2812 84.7551 39.2812 84.5069 39.5293L80.4231 43.6129C79.0932 42.787 77.621 42.1701 76.0525 41.8028V36.027C76.0525 35.6762 75.7679 35.3916 75.4171 35.3916H69.9867C69.6359 35.3916 69.3514 35.6762 69.3514 36.027V41.8028C67.7824 42.1699 66.3104 42.7868 64.9805 43.6129L60.8969 39.5289C60.6487 39.2808 60.2465 39.2808 59.9983 39.5289L56.1586 43.3687C55.9104 43.6167 55.9104 44.0191 56.1586 44.2674L60.2422 48.3512C59.4163 49.681 58.7994 51.1533 58.4322 52.722H52.6563C52.3055 52.722 52.0209 53.0066 52.0209 53.3574V58.7877C52.0209 59.1387 52.3053 59.4231 52.6563 59.4231H58.4322C58.7992 60.9919 59.4161 62.4639 60.2422 63.7938L56.1586 67.8776C55.9104 68.1258 55.9104 68.528 56.1586 68.7762L59.9983 72.6159C60.2465 72.8641 60.6487 72.8641 60.8969 72.6159L64.9805 68.5321C66.3104 69.358 67.7826 69.9751 69.3514 70.3423V76.1182C69.3514 76.4692 69.6359 76.7535 69.9867 76.7535H75.4171C75.7681 76.7535 76.0525 76.469 76.0525 76.1182V70.3423C77.6212 69.9753 79.0932 69.3584 80.4231 68.5323L84.5069 72.6159C84.7551 72.8641 85.1573 72.8641 85.4055 72.6159L89.2452 68.7762C89.4934 68.528 89.4934 68.1258 89.2452 67.8776L85.1616 63.7938C85.9875 62.4639 86.6044 60.9919 86.9716 59.4231H92.7475C93.0985 59.4231 93.3829 59.1385 93.3829 58.7877V53.3574C93.3829 53.0068 93.0983 52.7224 92.7475 52.7224ZM72.7019 62.7117C69.0353 62.7117 66.0632 59.7394 66.0632 56.073C66.0632 52.4064 69.0355 49.4342 72.7019 49.4342C76.3683 49.4342 79.3406 52.4066 79.3406 56.073C79.3406 59.7394 76.3683 62.7117 72.7019 62.7117Z" fill="#FFC850"/>
<path d="M56.2347 58.7884V53.358C56.2347 53.0072 56.5191 52.7227 56.8701 52.7227H52.6561C52.3053 52.7227 52.0207 53.0072 52.0207 53.358V58.7884C52.0207 59.1392 52.3051 59.4237 52.6561 59.4237H56.8701C56.5193 59.4237 56.2347 59.1392 56.2347 58.7884Z" fill="#F9B428"/>
<path d="M60.2418 48.3513C59.4159 49.6812 58.799 51.1535 58.4317 52.7222H61.8418C62.221 52.7222 62.5515 52.4685 62.6539 52.1035C62.9915 50.8996 63.4782 49.7582 64.0943 48.7011C64.2151 48.4939 64.1857 48.2325 64.0161 48.0629L60.2209 44.2677C59.9727 44.0195 59.9727 43.6173 60.2209 43.3691L62.4784 41.1116L60.8963 39.5294C60.648 39.2812 60.2459 39.2812 59.9976 39.5294L56.158 43.3693C55.9097 43.6175 55.9097 44.0197 56.158 44.2679L60.2418 48.3513Z" fill="#F9B428"/>
<path d="M60.2212 68.7769C59.973 68.5287 59.973 68.1265 60.2212 67.8783L63.9472 64.1524C64.1523 63.9472 64.2003 63.6287 64.0554 63.3772C63.4304 62.2913 62.9415 61.1177 62.6096 59.8796C62.5373 59.6097 62.2905 59.4238 62.011 59.4238H58.4319C58.799 60.9926 59.4158 62.4646 60.242 63.7945L56.1583 67.8783C55.9101 68.1265 55.9101 68.5287 56.1583 68.7769L59.998 72.6166C60.2462 72.8648 60.6484 72.8648 60.8966 72.6166L62.4788 71.0345L60.2212 68.7769Z" fill="#F9B428"/>
<path d="M73.4144 36.0275C73.4144 35.6767 73.699 35.3921 74.0498 35.3921H69.9867C69.6357 35.3921 69.3513 35.6765 69.3513 36.0275V41.8031H72.5124C73.0139 41.7919 73.4144 41.3122 73.4144 40.8104V36.0275Z" fill="#F9B428"/>
<path d="M73.4144 76.1186V70.9688C73.4144 70.6231 73.1341 70.3428 72.7884 70.3428H69.3513V76.1186C69.3513 76.4696 69.6357 76.754 69.9867 76.754H74.0498C73.699 76.754 73.4144 76.4696 73.4144 76.1186Z" fill="#F9B428"/>
<path d="M36.8256 7.7334C35.9842 7.7334 35.3021 8.41529 35.3021 9.25684C35.3021 10.0984 35.9842 10.7803 36.8256 10.7803H43.2281C44.0694 10.7803 44.7515 10.0984 44.7515 9.25684C44.7515 8.41529 44.0694 7.7334 43.2281 7.7334H36.8256Z" fill="black"/>
<path d="M44.2786 98.4917C46.3883 98.4917 48.1043 96.7753 48.1043 94.6658V93.5078C48.1043 91.3981 46.3881 89.6821 44.2786 89.6821H35.775C33.6653 89.6821 31.9493 91.3983 31.9493 93.5078V94.6658C31.9493 96.7755 33.6657 98.4917 35.775 98.4917H44.2786ZM34.9964 94.6658V93.5078C34.9964 93.0857 35.3529 92.7292 35.775 92.7292H44.2786C44.7007 92.7292 45.0572 93.0857 45.0572 93.5078V94.6658C45.0572 95.0879 44.7007 95.4446 44.2786 95.4446H35.775C35.3529 95.4446 34.9964 95.0879 34.9964 94.6658Z" fill="black"/>
<path d="M92.7977 51.0971H88.1831C87.9013 50.2031 87.5428 49.3368 87.1104 48.506L90.373 45.2434C90.7808 44.8356 91.0055 44.2932 91.0055 43.7163C91.0055 43.1397 90.7808 42.5973 90.3732 42.1899L86.5331 38.3496C85.6915 37.5088 84.3223 37.5092 83.4803 38.35L80.2173 41.613C79.3865 41.1805 78.5206 40.822 77.6263 40.5405V35.9257C77.6263 34.7354 76.6578 33.7667 75.4672 33.7667H71.0103V25.7097C71.0103 24.8682 70.3282 24.1863 69.4868 24.1863C68.6455 24.1863 67.8783 24.8682 67.8783 25.7097V35.3315V40.5405C66.9839 40.8222 66.1178 41.1805 65.2872 41.6132L64.4319 40.7576V18.0468C64.4319 16.5191 63.1889 15.2754 61.6602 15.2754C60.1754 15.2754 20.7456 15.2754 18.394 15.2754C16.8659 15.2754 15.6226 16.5185 15.6226 18.0468V84.4378C15.6226 85.9657 16.8657 87.2093 18.394 87.2093H61.6602C63.1883 87.2093 64.4317 85.9661 64.4317 84.4378V71.1845L65.287 70.3292C66.1178 70.762 66.9839 71.1205 67.8781 71.4021C67.8781 76.2986 67.849 76.2135 67.9632 76.611V76.6112V97.5741C67.9632 99.4372 66.4477 100.953 64.5846 100.953H43.5817C42.7404 100.953 42.0583 101.635 42.0583 102.476C42.0583 103.318 42.7404 104 43.5817 104H64.5844C68.1275 104 71.0101 101.117 71.0101 97.5739V78.1757H75.467C76.6573 78.1757 77.6261 77.207 77.6261 76.0165V71.4019C78.5202 71.1201 79.3863 70.7618 80.2171 70.3292L83.4801 73.5922C84.3219 74.4337 85.6917 74.4337 86.5333 73.5922L90.3727 69.7527C90.7806 69.3448 91.0053 68.8027 91.0053 68.2258C91.0053 67.6489 90.7806 67.1068 90.373 66.6991L87.1102 63.4363C87.5426 62.6055 87.9013 61.7394 88.1829 60.8453H92.7975C93.9878 60.8453 94.9565 59.8768 94.9565 58.6862V53.2559C94.9567 52.0658 93.9882 51.0971 92.7977 51.0971ZM61.3844 24.9368H27.5824V18.3229H61.3844V24.9368ZM18.6692 18.3229H24.5351V24.9368H18.6692V18.3229ZM61.3844 84.1622H18.6692V27.9839C20.9207 27.9839 59.7831 27.9839 61.3842 27.9839V37.9084C60.5873 37.5501 59.615 37.7061 58.9706 38.35L55.131 42.1897C54.2799 43.0409 54.2955 44.4082 55.131 45.2432L58.3938 48.506C58.2365 48.8079 58.0927 49.1158 57.9552 49.4268C57.7143 49.9714 57.5004 50.5277 57.3211 51.0969H52.7065C51.5162 51.0969 50.5475 52.0652 50.5475 53.2559V54.4474H24.8422C24.0009 54.4474 23.3188 55.1293 23.3188 55.9709C23.3188 56.8124 24.0009 57.4943 24.8422 57.4943H50.5475V58.6858C50.5475 59.8759 51.5156 60.8449 52.7065 60.8449H57.3211C57.5823 61.674 57.9288 62.5428 58.3938 63.4357L55.131 66.6987C54.2892 67.5407 54.2892 68.9103 55.131 69.7521L58.9706 73.5918C59.6009 74.2217 60.5672 74.3998 61.3842 74.0336L61.3844 84.1622ZM91.9096 57.7982H87.022C86.3143 57.7982 85.6999 58.2855 85.5386 58.9745C85.2136 60.363 84.6684 61.6801 83.9178 62.8889C83.5445 63.4902 83.6343 64.2693 84.1348 64.77L87.5906 68.2258L85.0068 70.8098L81.5508 67.3538C81.0501 66.8537 80.2713 66.7635 79.6697 67.1371C78.4607 67.8876 77.1436 68.433 75.7557 68.7578C75.0665 68.9189 74.5792 69.5333 74.5792 70.2412V75.129H70.9252V70.2412C70.9252 69.5335 70.4379 68.9189 69.7487 68.7578C68.3605 68.433 67.0434 67.8878 65.8346 67.1371C65.2336 66.7637 64.4542 66.8535 63.9535 67.354L60.4977 70.81L57.9138 68.226L61.3696 64.7702C61.8703 64.2695 61.9598 63.4899 61.5865 62.8887C60.8355 61.6795 60.2893 60.3574 59.966 58.9749C59.8049 58.2857 59.1902 57.7984 58.4825 57.7984H53.5949V54.1444H58.4825C59.1902 54.1444 59.8047 53.6571 59.966 52.9679C60.2778 51.6356 60.8236 50.2824 61.5865 49.0539C61.7264 48.8284 61.8014 48.5779 61.814 48.3265C61.8349 47.9074 61.6824 47.4855 61.3696 47.1729L59.0657 44.8689L57.914 43.717L60.4977 41.133L63.9535 44.589C64.4538 45.0895 65.2332 45.1795 65.8346 44.8059C67.0432 44.0554 68.3601 43.5102 69.7487 43.1852C70.4379 43.0241 70.9252 42.4096 70.9252 41.7017V36.814H74.5792V41.7013C74.5792 42.409 75.0665 43.0235 75.7557 43.1848C77.144 43.5096 78.4611 44.0547 79.6699 44.8055C80.2709 45.1786 81.0503 45.0889 81.5508 44.5886L85.0068 41.1326L87.5908 43.7165L84.135 47.1725C83.6345 47.673 83.5447 48.4522 83.9181 49.0537C84.6686 50.2625 85.214 51.5795 85.5388 52.9681C85.6999 53.6571 86.3145 54.1444 87.0222 54.1444H91.9098L91.9096 57.7982Z" fill="black"/>
<path d="M72.7521 47.8091C68.2514 47.8091 64.5897 51.4706 64.5897 55.9715C64.5897 60.4723 68.2512 64.1338 72.7521 64.1338C77.2527 64.1338 80.9142 60.4723 80.9142 55.9715C80.9142 51.4706 77.2527 47.8091 72.7521 47.8091ZM72.7521 61.0868C69.9315 61.0868 67.6366 58.7919 67.6366 55.9713C67.6366 53.1507 69.9313 50.8558 72.7521 50.8558C75.5727 50.8558 77.8674 53.1507 77.8674 55.9713C77.8674 58.7921 75.5725 61.0868 72.7521 61.0868Z" fill="black"/>
<path d="M24.8422 40.939H52.0709C52.9123 40.939 53.5944 40.2571 53.5944 39.4155C53.5944 38.574 52.9123 37.8921 52.0709 37.8921H24.8422C24.0009 37.8921 23.3188 38.574 23.3188 39.4155C23.3186 40.2571 24.0009 40.939 24.8422 40.939Z" fill="black"/>
<path d="M24.8422 49.2173H52.0709C52.9123 49.2173 53.5944 48.5354 53.5944 47.6938C53.5944 46.8523 52.9123 46.1704 52.0709 46.1704H24.8422C24.0009 46.1704 23.3188 46.8523 23.3188 47.6938C23.3186 48.5352 24.0009 49.2173 24.8422 49.2173Z" fill="black"/>
<path d="M52.0709 62.7256H24.8422C24.0009 62.7256 23.3188 63.4075 23.3188 64.249C23.3188 65.0906 24.0009 65.7725 24.8422 65.7725H52.0709C52.9123 65.7725 53.5944 65.0906 53.5944 64.249C53.5944 63.4075 52.9123 62.7256 52.0709 62.7256Z" fill="black"/>
<path d="M52.0709 71.0034H24.8422C24.0009 71.0034 23.3188 71.6853 23.3188 72.5269C23.3188 73.3684 24.0009 74.0503 24.8422 74.0503H52.0709C52.9123 74.0503 53.5944 73.3684 53.5944 72.5269C53.5944 71.6853 52.9123 71.0034 52.0709 71.0034Z" fill="black"/>
<path d="M36.4717 100.953H15.4692C13.6062 100.953 12.0907 99.4374 12.0907 97.5743V6.42566C12.0907 4.56259 13.6062 3.04708 15.4692 3.04708H64.5847C66.4477 3.04708 67.9632 4.56259 67.9632 6.42566V18.6002C67.9632 19.4417 68.6453 20.1236 69.4867 20.1236C70.328 20.1236 71.0101 19.4417 71.0101 18.6002V6.42566C71.0101 2.88255 68.1276 0 64.5847 0H15.4692C11.9261 0 9.04358 2.88255 9.04358 6.42566V97.5743C9.04358 101.117 11.9261 104 15.4692 104H36.472C37.3133 104 37.9954 103.318 37.9954 102.477C37.9954 101.635 37.3135 100.953 36.4717 100.953Z" fill="black"/>
</svg>

<svg xmlns="http://www.w3.org/2000/svg" viewBox="0 0 104 104" fill="none"  xmlns:v="https://vecta.io/nano"><path d="M64.534 1.625H15.42a4.92 4.92 0 0 0-4.902 4.902v91.15a4.92 4.92 0 0 0 4.902 4.902h49.115a4.92 4.92 0 0 0 4.902-4.902V6.527a4.92 4.92 0 0 0-4.902-4.902z" fill="#e4eaf8"/><path d="M14.58 97.676V6.527a4.92 4.92 0 0 1 4.902-4.902H15.42a4.92 4.92 0 0 0-4.902 4.902v91.15a4.92 4.92 0 0 0 4.902 4.902h4.063a4.92 4.92 0 0 1-4.902-4.902z" fill="#d8dce5"/><path d="M61.6 16.9H18.344a1.25 1.25 0 0 0-1.248 1.248v66.39a1.25 1.25 0 0 0 1.248 1.248H61.6a1.25 1.25 0 0 0 1.248-1.248V18.15a1.25 1.25 0 0 0-1.248-1.248z" fill="#5bddfc"/><g fill="#00c3ff"><path d="M21.16 84.54V18.15a1.25 1.25 0 0 1 1.248-1.248h-4.063a1.25 1.25 0 0 0-1.248 1.248v66.39a1.25 1.25 0 0 0 1.248 1.248h4.063a1.25 1.25 0 0 1-1.248-1.248z"/><path d="M61.6 16.9H18.344a1.25 1.25 0 0 0-1.248 1.248v8.413h45.762V18.15a1.25 1.25 0 0 0-1.248-1.248z"/></g><path d="M26.01 16.9h-7.665a1.25 1.25 0 0 0-1.248 1.248v8.413h8.913V16.9z" fill="#ff5050"/><path d="M21.16 18.304c0-.633.39-1.175.94-1.402h-3.755a1.25 1.25 0 0 0-1.248 1.248v8.413h4.063v-8.26z" fill="#ed3a3a"/><path d="M44.23 97.07h-8.504a2.31 2.31 0 0 1-2.302-2.302V93.61a2.31 2.31 0 0 1 2.302-2.302h8.504a2.31 2.31 0 0 1 2.302 2.302v1.158a2.31 2.31 0 0 1-2.302 2.302z" fill="#c3c8d1"/><path d="M44.228 94.188h-8.504a2.31 2.31 0 0 1-2.133-1.44c-.11.267-.17.557-.17.86v1.158a2.31 2.31 0 0 0 2.302 2.302h8.504a2.31 2.31 0 0 0 2.302-2.302V93.61c0-.304-.06-.595-.17-.86a2.31 2.31 0 0 1-2.132 1.441z" fill="#b0b3b7"/><path d="M92.748 52.722h-5.776c-.367-1.57-.984-3.04-1.8-4.37l4.084-4.084c.248-.248.248-.65 0-.9l-3.84-3.84c-.248-.248-.65-.248-.9 0l-4.084 4.084a14.58 14.58 0 0 0-4.371-1.81v-5.776c0-.35-.285-.635-.635-.635h-5.43c-.35 0-.635.285-.635.635v5.776c-1.57.367-3.04.984-4.37 1.8l-4.084-4.084c-.248-.248-.65-.248-.9 0l-3.84 3.84c-.248.248-.248.65 0 .9l4.084 4.084c-.826 1.33-1.443 2.802-1.8 4.37h-5.776c-.35 0-.635.285-.635.635v5.43c0 .35.284.635.635.635h5.776c.367 1.57.984 3.04 1.8 4.37l-4.084 4.084c-.248.248-.248.65 0 .9l3.84 3.84c.248.248.65.248.9 0l4.084-4.084c1.33.826 2.802 1.443 4.37 1.8v5.776c0 .35.285.635.635.635h5.43c.35 0 .635-.285.635-.635v-5.776c1.57-.367 3.04-.984 4.37-1.8l4.084 4.084c.248.248.65.248.9 0l3.84-3.84c.248-.248.248-.65 0-.9l-4.084-4.084c.826-1.33 1.443-2.802 1.8-4.37h5.776c.35 0 .635-.285.635-.635v-5.43c0-.35-.285-.635-.635-.635zm-20.046 9.99a6.64 6.64 0 0 1-6.639-6.639 6.64 6.64 0 0 1 6.639-6.639 6.64 6.64 0 0 1 6.639 6.639 6.64 6.64 0 0 1-6.639 6.639z" fill="#ffc850"/><path d="M56.235 58.788v-5.43c0-.35.284-.635.635-.635h-4.214c-.35 0-.635.284-.635.635v5.43c0 .35.284.635.635.635h4.214c-.35 0-.635-.284-.635-.635zm4.007-10.438a14.58 14.58 0 0 0-1.81 4.371h3.4c.38 0 .7-.254.812-.62a14.58 14.58 0 0 1 1.44-3.402.53.53 0 0 0-.078-.638l-3.795-3.795c-.248-.248-.248-.65 0-.9l2.258-2.258-1.582-1.582c-.248-.248-.65-.248-.9 0l-3.84 3.84c-.248.248-.248.65 0 .9l4.084 4.083zm-.022 20.427c-.248-.248-.248-.65 0-.9l3.726-3.726c.205-.205.253-.524.108-.775-.625-1.086-1.114-2.26-1.446-3.498a.62.62 0 0 0-.599-.456h-3.58c.367 1.57.984 3.04 1.8 4.37l-4.084 4.084c-.248.248-.248.65 0 .9l3.84 3.84c.248.248.65.248.9 0l1.582-1.582-2.258-2.258zm13.194-32.75c0-.35.285-.635.635-.635h-4.063c-.35 0-.635.284-.635.635v5.776h3.16c.502-.01.902-.5.902-.993v-4.783zm0 40.092v-5.15c0-.346-.28-.626-.626-.626H69.35v5.776c0 .35.284.635.635.635h4.063c-.35 0-.635-.284-.635-.635z" fill="#f9b428"/><path d="M36.826 7.733c-.84 0-1.523.682-1.523 1.523s.682 1.523 1.523 1.523h6.402c.84 0 1.523-.682 1.523-1.523s-.682-1.523-1.523-1.523h-6.402zm7.454 90.76a3.83 3.83 0 0 0 3.826-3.826v-1.158a3.83 3.83 0 0 0-3.826-3.826h-8.504a3.83 3.83 0 0 0-3.826 3.826v1.158a3.83 3.83 0 0 0 3.826 3.826h8.504zm-9.282-3.826v-1.158a.79.79 0 0 1 .779-.779h8.504a.79.79 0 0 1 .779.779v1.158a.79.79 0 0 1-.779.779h-8.504a.79.79 0 0 1-.779-.779zm57.8-43.57h-4.615a16.08 16.08 0 0 0-1.073-2.591l3.263-3.263c.408-.408.632-.95.632-1.527s-.225-1.12-.632-1.526l-3.84-3.84c-.842-.84-2.2-.84-3.053 0l-3.263 3.263a16.03 16.03 0 0 0-2.591-1.072v-4.615a2.16 2.16 0 0 0-2.159-2.159H71V25.7c0-.84-.682-1.523-1.523-1.523s-1.6.682-1.6 1.523v14.83c-.894.282-1.76.64-2.6 1.073l-.855-.856v-22.7c0-1.528-1.243-2.77-2.772-2.77H18.394c-1.528 0-2.77 1.243-2.77 2.77v66.4c0 1.528 1.243 2.772 2.77 2.772H61.66c1.528 0 2.772-1.243 2.772-2.772V71.185l.855-.855a16.02 16.02 0 0 0 2.591 1.073l.085 5.2v20.963c0 1.863-1.516 3.38-3.38 3.38h-21c-.84 0-1.523.682-1.523 1.523A1.52 1.52 0 0 0 43.582 104h21.003c3.543 0 6.426-2.883 6.426-6.426V78.176h4.457a2.16 2.16 0 0 0 2.16-2.16V71.4a16.06 16.06 0 0 0 2.591-1.073l3.263 3.263c.842.84 2.212.84 3.053 0l3.84-3.84c.408-.408.633-.95.633-1.527s-.225-1.12-.632-1.527l-3.276-3.26a16.06 16.06 0 0 0 1.073-2.591h4.615a2.16 2.16 0 0 0 2.159-2.159v-5.43a2.16 2.16 0 0 0-2.159-2.159zm-31.413-26.16H27.582v-6.614h33.802v6.614zM18.67 18.323h5.866v6.614H18.67v-6.614zm42.715 65.84H18.67v-56.18h42.715v9.925a2.17 2.17 0 0 0-2.414.442l-3.84 3.84a2.16 2.16 0 0 0 0 3.053l3.263 3.263a15.92 15.92 0 0 0-.439.921 16.15 16.15 0 0 0-.634 1.67h-4.615a2.16 2.16 0 0 0-2.159 2.159v1.192H24.842c-.84 0-1.523.682-1.523 1.523s.682 1.523 1.523 1.523h25.705v1.2a2.16 2.16 0 0 0 2.159 2.159h4.615a16 16 0 0 0 1.073 2.591L55.13 66.7a2.16 2.16 0 0 0 0 3.053l3.84 3.84a2.17 2.17 0 0 0 2.414.442v10.13zM91.9 57.798h-4.888a1.52 1.52 0 0 0-1.483 1.176 13.04 13.04 0 0 1-1.621 3.914 1.52 1.52 0 0 0 .217 1.88l3.456 3.456-2.584 2.584-3.456-3.456a1.51 1.51 0 0 0-1.88-.217 13.04 13.04 0 0 1-3.914 1.621 1.52 1.52 0 0 0-1.177 1.483v4.888h-3.654V70.24a1.52 1.52 0 0 0-1.177-1.483 13.03 13.03 0 0 1-3.914-1.621 1.52 1.52 0 0 0-1.88.217L60.498 70.8l-2.584-2.584 3.456-3.456c.5-.5.6-1.28.217-1.882a13.05 13.05 0 0 1-1.62-3.914 1.52 1.52 0 0 0-1.483-1.176h-4.888v-3.654h4.888a1.52 1.52 0 0 0 1.483-1.176c.312-1.332.858-2.685 1.62-3.914a1.52 1.52 0 0 0-.217-1.881l-3.456-3.456 2.584-2.584 3.456 3.456a1.51 1.51 0 0 0 1.88.217 13.04 13.04 0 0 1 3.914-1.62 1.52 1.52 0 0 0 1.177-1.483v-4.888h3.654V41.7a1.52 1.52 0 0 0 1.177 1.483 13.03 13.03 0 0 1 3.914 1.621c.6.373 1.38.283 1.88-.217l3.456-3.456 2.584 2.584-3.456 3.456a1.51 1.51 0 0 0-.217 1.88 13.04 13.04 0 0 1 1.62 3.914 1.52 1.52 0 0 0 1.483 1.176h4.88v3.654zM72.752 47.8c-4.5 0-8.162 3.66-8.162 8.162s3.662 8.162 8.162 8.162 8.162-3.66 8.162-8.162a8.17 8.17 0 0 0-8.162-8.162zm0 13.278c-2.82 0-5.115-2.295-5.115-5.115s2.295-5.115 5.115-5.115 5.115 2.295 5.115 5.115-2.295 5.115-5.115 5.115zm-47.9-20.148h27.23c.84 0 1.523-.682 1.523-1.523s-.682-1.523-1.523-1.523h-27.23c-.84 0-1.523.682-1.523 1.523s.68 1.523 1.523 1.523zm0 8.277h27.23c.84 0 1.523-.682 1.523-1.523s-.682-1.523-1.523-1.523h-27.23c-.84 0-1.523.682-1.523 1.523s.682 1.523 1.523 1.523zm27.228 13.51H24.84c-.84 0-1.523.682-1.523 1.523s.682 1.523 1.523 1.523h27.23c.84 0 1.523-.682 1.523-1.523s-.682-1.523-1.523-1.523zm0 8.277H24.84c-.84 0-1.523.682-1.523 1.523S24 74.05 24.842 74.05h27.23c.84 0 1.523-.682 1.523-1.523s-.682-1.523-1.523-1.523zm-15.598 29.95H15.47c-1.863 0-3.38-1.516-3.38-3.38V6.426c0-1.863 1.515-3.38 3.38-3.38h49.116c1.863 0 3.38 1.516 3.38 3.38V18.6c0 .84.682 1.523 1.523 1.523S71 19.442 71 18.6V6.426C71 2.883 68.128 0 64.585 0H15.47c-3.543 0-6.426 2.883-6.426 6.426v91.15c0 3.543 2.883 6.426 6.426 6.426h21.003c.84 0 1.523-.682 1.523-1.523s-.682-1.524-1.524-1.524z" fill="#000"/></svg>
